src/lib/packages/icons/src/assets/filled/backpack.svg

<svg width="24" height="24" viewBox="0 0 24 24" fill="none" xmlns="http://www.w3.org/2000/svg">
<path d="M15.25 14.5V20.7C15.25 20.866 15.116 21 14.95 21H9.05005C8.88405 21 8.75 20.866 8.75 20.7V14.5C8.75 13.911 8.911 13.75 9.5 13.75H14.5C15.089 13.75 15.25 13.911 15.25 14.5ZM21 14V18C21 18.67 20.67 19 20 19H18.8899C18.6599 19.99 18.0801 20.61 17.1201 20.87C16.9301 20.92 16.75 20.7599 16.75 20.5699V14.5C16.75 13.09 15.91 12.25 14.5 12.25H9.5C8.09 12.25 7.25 13.09 7.25 14.5V20.5699C7.25 20.7599 7.06988 20.92 6.87988 20.87C5.91988 20.61 5.34011 19.99 5.11011 19H4C3.33 19 3 18.67 3 18V14C3 13.33 3.33 13 4 13H5V11C5 8.64 6.25 6.91003 8.25 6.28003V6C8.25 3.93 9.93 2.25 12 2.25C14.07 2.25 15.75 3.93 15.75 6V6.28003C17.75 6.91003 19 8.64 19 11V13H20C20.67 13 21 13.33 21 14ZM13.75 10C13.75 9.59 13.41 9.25 13 9.25H11C10.59 9.25 10.25 9.59 10.25 10C10.25 10.41 10.59 10.75 11 10.75H13C13.41 10.75 13.75 10.41 13.75 10ZM14.25 6C14.25 4.76 13.24 3.75 12 3.75C10.76 3.75 9.75 4.76 9.75 6V6.02002C9.84 6.02002 9.91 6 10 6H14C14.09 6 14.16 6.02002 14.25 6.02002V6Z" fill="currentColor"/>
</svg>

<svg xmlns="http://www.w3.org/2000/svg" width="24" height="24" fill="none"><path fill="currentColor" d="M15.25 14.5v6.2a.3.3 0 0 1-.3.3h-5.9a.3.3 0 0 1-.3-.3v-6.2c0-.589.161-.75.75-.75h5c.589 0 .75.161.75.75ZM21 14v4c0 .67-.33 1-1 1h-1.11c-.23.99-.81 1.61-1.77 1.87-.19.05-.37-.11-.37-.3V14.5c0-1.41-.84-2.25-2.25-2.25h-5c-1.41 0-2.25.84-2.25 2.25v6.07c0 .19-.18.35-.37.3-.96-.26-1.54-.88-1.77-1.87H4c-.67 0-1-.33-1-1v-4c0-.67.33-1 1-1h1v-2c0-2.36 1.25-4.09 3.25-4.72V6c0-2.07 1.68-3.75 3.75-3.75 2.07 0 3.75 1.68 3.75 3.75v.28C17.75 6.91 19 8.64 19 11v2h1c.67 0 1 .33 1 1Zm-7.25-4c0-.41-.34-.75-.75-.75h-2c-.41 0-.75.34-.75.75s.34.75.75.75h2c.41 0 .75-.34.75-.75Zm.5-4c0-1.24-1.01-2.25-2.25-2.25S9.75 4.76 9.75 6v.02c.09 0 .16-.02.25-.02h4c.09 0 .16.02.25.02V6Z"/></svg>
